!!!!SEGMENT: pl-kj--bj-muz-9691-iii_sowinski-wojciech--reverie-au-bord-de-la-mer.krn
!!!cenid: 18xx:3589
!!!COM: Sowiński, Wojciech
!!!COM-rismid: pe30008543
!!!CDT:
!!!CNT:
!!!OTL: Rêverie au bord de la mer
!!!PDT:
!!!AGN:
!!!SMS-siglum: PL-Kj
!!!SMS-shelfmark: BJ Muz. 9691 III
!!!SMS-shelfwork: W
!!!SMS-variant:
!!!SMS-altvar:
!!!NIFC-rismid:
!!!URL-scan: https://polona.pl/item/reverie-au-bord-de-la-mer-pour-le-piano,OTQwODY4Mjg/11/#info:metadata
!!!ONB-nifc:
**kern	**kern	**dynam
*part2	*part1	*part1
*staff2	*staff1	*
*Ipiano	*Ipiano	*
*I"Piano.	*I"Piano.	*
*I'pf	*I'pf	*
*clefF4	*clefG2	*
*k[f#c#g#]	*k[f#c#g#]	*
*F#:	*F#:	*
*M4/4	*M4/4	*
*met(c)	*met(c)	*
=1	=1	=1
!LO:TX:t=P:problem:triola oznaczona 3	!LO:TX:a:t=Andante espressivo	!
12r	(2A#X/ 2c# 2f# 2a#X	p
(12F#\L	.	.
12C#\J	.	.
12AA#X\L	.	.
12C#\	.	.
12FF#\J)	.	.
!LO:TX:t=P:problem:brak oznaczenia trioli i sekstoli:global	!	!
12r	4B/ 4c# 4e#X 4g#	.
(12C#\L 12E#X	.	.
12GG#\J)	.	.
12r	4A#/ 4c# 4d#X 4a#	.
(12C#\L 12D#X 12F##X	.	.
12FF##X\J)	.	.
=2	=2	=2
12r	4B/ 4d#X 4g# 4b	.
(12G#\L	.	.
12D#X\J	.	.
12E#X\L	8.c#/L 8.g# 8.cc#	.
12C#\	.	.
12EE#X\J)	.	.
.	16c#/Jk 16g#	.
12r	4c#/ 4f# 4a#X	.
(12F#\L	.	.
12C#\J	.	.
12AA#X\L	4c#/) 4f# 4a# 4cc#	.
12C#\	.	.
12FF#\J)	.	.
=3	=3	=3
*	*^	*
12r	(4B/ 4e#X 4g#	2.ryy	.
(12E#X\L	.	.	.
12C##X\J	.	.	.
12AA#X\L	8.A#X/L 8.e# 8.a#X	.	.
12C##\	.	.	.
12CC##X\J)	.	.	.
.	16g#/Jk	.	.
12r	4A#/ 4d#X 4f#	.	.
(12D#X\L	.	.	.
12AA#\J	.	.	.
12FF#\L	8.g#:/L	4A#:\ 4d#:	.
12AA#\	.	.	.
12DD#X\J)	.	.	.
.	16g##X/Jk)	.	.
*	*v	*v	*
=4	=4	=4
12r	4.A#X^^/ 4.c##X 4.a#X	.
(12C##X/L	.	.
12AA#X/J	.	.
12EE#X/L	.	.
12AA#/	.	.
.	16g#/LL	.
12CC##X/J)	.	.
.	16f#/JJ	.
12r	2A#X/ 2c##X 2e#X	pp
(12AA#/L	.	.
12EE#X/J	.	.
12CC##X/L	.	.
12EE#/	.	.
12AAA#X/J)	.	.
=5	=5	=5
12FF#\L	2A#X/ 2c# 2f# 2a#X	rfz >
12F#\ 12A#X	.	.
12C#\J 12F#	.	.
12AA#X\L 12C#	.	.
12C#\ 12F#	.	.
12FF#\J 12AA# 12C#	.	.
12r	4B/ 4c# 4e#X 4g#	]
12C#\L 12E#X	.	.
12GG#\J 12BB 12C#	.	.
12r	4A#/ 4c# 4d#X 4a#	.
12C#\L 12D#X 12F##X	.	.
12FF##X\J	.	.
=6	=6	=6
12r	4B/ 4d#X 4g# 4b	.
12D#X\L 12G#	.	.
12GG#\J 12BB 12D#	.	.
12C#\L 12E#X	8.c#:/L 8.g#: 8.cc#:	.
12GG#\ 12C#	.	.
12EE#X\J 12GG#	.	.
.	16g#/Jk	.
12r	(4c#/ 4f# 4a#X	.
12C#\L 12F#	.	.
12F#\J 12A#X	.	.
12A#\L 12c#	4f#:\) 4a#: 4cc#: 4ff#:	sf
12F#\ 12A#	.	.
12C#\J 12F#	.	.
=7	=7	=7
12GG#/	4d#X/ 4f# 4g#	p <
12BB\L 12D 12G#	.	.
12D\J 12G# 12B	.	.
12D\L 12G# 12B	8.a#X/L	.
12D\ 12G#	.	.
12BB\J 12D	.	.
.	16b/Jk	.
12CC#/	2c#/ 2f# 2a#X	[
12C#\L 12F#	.	.
12F#\J 12A#X	.	.
12A#\L 12c#	.	.
12F#\ 12A#	.	.
12C#\J 12F#	.	.
=8	=8	=8
12CC#\L	8.B/L 8.e#X 8.g#	.
12C#\ 12E#X	.	.
12E#\J 12G#	.	.
.	16f##X/Jk	.
12G#\L 12c#	8.B/L 8.e# 8.g#	.
12E#\ 12G#	.	.
12C#\J 12E#	.	.
.	16a#X/Jk	.
12FF#\L	4A#X/ 4c# 4f##	.
12C#\ 12F# 12A#X	.	.
12F#\J 12A# 12c#	.	.
4A#^^\ 4c# 4f#	4r	pp
=9	=9	=9
12CC#/	4G#/	p f
!LO:TX:a:t=m.g.	!	!
12e/L 12g#	.	.
12g#/J 12cc#	.	.
!	!LO:TX:b:t=canto sostenuto	!
12r	8.G#/L	.
12e/L 12g#	.	.
12e/J 12g# 12cc#	.	.
.	16G#/Jk	.
12r	4A#X/	.
12C#\L 12F#	.	.
12AA#X\J	.	.
12r	4B/	.
12C#\L 12E#X	.	.
12GG#\J	.	.
=10	=10	=10
12FF#/	4c#/	.
12f#\L 12a#X	.	.
12a#\J 12cc#	.	.
12r	8.d#X/L	.
12b\L 12cc# 12ee#X	.	.
12g#\J 12b 12cc#	.	.
.	16e#X/Jk	.
.	8qe#/	sf >
12r	4g#/	.
12F#\L 12A#X	.	.
12C#\J 12F#	.	.
12r	4f#/	]
12C#\L 12F#	.	.
12AA#X\J 12C#	.	.
=11	=11	=11
12FF#/	4f#/	.
12a#X\L 12cc#	.	.
12cc#\J 12ff#	.	.
12r	8.e#X/L	.
12g#\L 12b 12cc#	.	.
12b\J 12cc# 12ee#X	.	.
.	16d#X/Jk	.
12r	4c#/	.
12AA#X\L 12C#	.	.
12C#\J 12F#	.	.
12F#\L 12A#X	4c#/	.
12C#\ 12F#	.	.
12AA#\J 12C#	.	.
=12	=12	=12
12GG#/	4B#X/	sf <
12g#\L 12b#X	.	.
12b#\J 12dd#X	.	.
12dd#\L 12ff#	8..d#X\L	[
12b#\ 12dd#	.	.
12g#\J 12b#	.	.
.	32f#\Jkk	.
12CC#/	(4f#/	.
12E#X\L 12G#	.	.
12G#\J 12c#	.	.
12c#\L 12g#	[4e#X\)	.
12G#\ 12c#	.	.
12E#\J 12G#	.	.
=13	=13	=13
*	*^	*
!	!LO:TX:b:t=Piu dolce	!	!
12BBB/	(4dd#X/	4d\ 4e#X_ [4g#	.
12BB\L 12D#X	.	.	.
12D#\J 12G#	.	.	.
12G#\L 12B	8.ee#X^/L	8.e#\L] 8.g#]	.
12D#\ 12G#	.	.	.
12BB\J 12D#	.	.	.
.	16dd#/Jk	16d\Jk	.
12AAA#X/	4cc#/)	4c#\ 4f# 4a#X	.
12AA#X\L 12C# 12F#	.	.	.
12C#\J 12F# 12A#X	.	.	.
12BBB/	4dd#/	4d\ 4f# 4g#	.
12BB\L 12D# 12G#	.	.	.
12D#\J 12G# 12B	.	.	.
=14	=14	=14	=14
12CC#/	4f#/ 4a#X	4c#\	.
12C#\L 12F# 12A#X	.	.	.
12F#\J 12A# 12c#	.	.	.
12CC#/	8.g#/L	4B\ 4e#X	.
12C#\L 12E#X 12G#	.	.	.
12E#\J 12G# 12B	.	.	.
.	16g##X/Jk	.	.
12CC##X/	2e#/ 2a#	4A#X\	f >
12C##X\L 12E#	.	.	.
12E#\J 12A#	.	.	.
12A#\L 12c##X	.	4ryy	.
12E#\ 12A#	.	.	.
12C##\J 12E#	.	.	.
*	*v	*v	*
=15	=15	=15
12AAA#X/	(4a#X\	] p
12C##X\L 12E	.	.
12E\J 12A#X	.	.
12A#\L 12c##X	24b\LL	<
.	24a#\	.
12E\ 12A#	24g##X\	.
.	24a#\	.
12C##\J 12E	24.ff#\	.
.	48ee#X\JJk)	[
12DD#X/	4ee#\	>
12D#X\L 12F#	.	.
12F#\J 12A#X	.	.
12A#\L 12d#X	4dd\	]
12F#\ 12A#	.	.
12D#\J 12F#	.	.
=16	=16	=16
12BBB#X/	4g#/	.
12BB#X\L 12D#X	.	.
12D#\J 12G#	.	.
12G#\L 12B#X	4ryy	.
12D#\ 12G#	.	.
12BB#\J 12D#	.	.
.	(32qqg#\LLL	.
.	32qqa#X\	.
.	32qqg#\	.
.	32qqf##X\	.
.	32qqg#\	.
.	32qqb#X\	.
.	32qqdd#X\	.
.	32qqff#\	.
.	32qqaa#X\	.
.	32qqgg#\	.
.	32qqff#\	.
.	32qqdd#\	.
.	32qqb#\	.
.	32qqg#\	.
.	32qqa#\	.
.	32qqg#\	.
.	32qqf##\	.
.	32qqg#\	.
.	32qqb#\	.
.	32qqee#X\	.
.	32qqdd#\	.
!	!LO:TX:b:i:t=delicato	!
.	32qqcc#\JJJ)	.
12CC#/	2cc#\	.
12C#\L 12E#X	.	.
12E#\J 12G#	.	.
12G#\L 12c#	.	.
12E#\ 12G#	.	.
12C#\J 12E#	.	.
=17	=17	=17
*	*^	*
!	!LO:TX:b:t=espres.	!	!
12BBBn/	4ryy	4e#X^^\ 4g# 4dd#X	.
12BB\L 12D#X	.	.	.
12D#\J 12G#	.	.	.
12G#\L 12B	8.ee#X/L	4e#\ 4g#	.
12D#\ 12G#	.	.	.
12BB\J 12D#	.	.	.
.	16dd#/Jk	.	.
12AAA#X/	2cc#/	2f#\ 2a#X	.
12AA#X/L 12C#	.	.	.
12C#/ 12F#	.	.	.
12F#/ 12A#X	.	.	.
12C#/ 12F#	.	.	.
12AA#/J 12C#	.	.	.
*	*v	*v	*
=18	=18	=18
12BBB/	4e#X\ 4g# 4ddn	pp
12BB\L 12Dn	.	.
12D\J 12G#	.	.
12G#\L 12B	(12e#\L 12g# 12ee#X	.
12D\ 12G#	12dd#X\	.
12BB\J 12D	12ddn\J)	.
12AAA#X/	2en/ 2gn 2a#X 2cc#	sf
12AA#X\L 12E	.	.
12E\ 12Gn	.	.
12E\ 12G 12c#	.	.
12E\ 12G	.	.
12AA#\J 12E	.	.
=19	=19	=19
*	*^	*
12GGG#/	(12cc#/L	4d#X\ 4g#	<
12BB\L 12D#X	12b/	.	.
12D#\ 12G#	12a#X/J	.	.
12G#\ 12B	12g#/L	4ryy	.
12D#\ 12G#	12ee#X/	.	.
12BB\J 12D#	12dd#X/J)	.	[
12CC#/	4A#X/ 4c# 4f#	2ryy	>
12C#\L 12F#	.	.	.
12F#\J 12A#X	.	.	.
12CC#/	8.B:/L 8.c#: 8.e#X: 8.g#:	.	]
12C#\L 12E#X 12G#	.	.	.
12E#\J 12G# 12B	.	.	.
.	16an/Jk	.	.
*	*v	*v	*
=20	=20	=20
12CCn/ 12Cn	4An:/ 4cn: 4d#X: 4f#: 4an:	.
12C\L 12D#X 12F#	.	.
12D#\ 12F# 12An	.	.
12F#\ 12A 12cn	8.d#:/L 8.f#: 8.a: 8.ccn:	<
12D#\ 12F# 12A	.	.
12C\J 12D# 12F#	.	.
.	16a/Jk 16cc 16dd#X 16ff#	.
12CC/ 12C	2a:/ 2cc: 2dd#: 2ff#: 2aa:	[
12C\L 12D# 12F#	.	.
12D#\ 12F# 12A	.	.
12F#\ 12A 12c	.	.
12D#\ 12F# 12A	.	.
12C\J 12D# 12F#	.	.
=21	=21	=21
12DD/	4a#X\ 4cc# 4ff# 4aa#X	ff
12F#\L 12A#X	.	.
12A#\ 12c#	.	.
12c#\ 12f#	2a#\ 2cc# 2ff# 2aa#	.
12A#\ 12c#	.	.
12F#\J 12A#	.	.
12DD/	.	.
12D\L 12G#	.	.
12G#\ 12B	.	.
12G#\ 12B 12e#X	(8.b\L 8.ee#X 8.gg#	.
12G#\ 12B	.	.
12D\J 12G#	.	.
.	16aa#\Jk)	.
=22	=22	=22
12DD#X/	8b'\ 8ee#X 8gg#	.
12D#X\L 12F#	.	.
.	8r	.
12F#\ 12A#X	.	.
12A#\ 12d#X	4f#^^\ 4a 4dd 4ff#	.
12F#\ 12A#	.	.
12D#\J 12F#	.	.
12EE#X\L	4c##X\ 4a 4cc##X	.
12G#\ 12A#	.	.
12G#\J 12A# 12e#X	.	.
12FF#\L	4d#X\ 4a 4dd	.
12F#\ 12A#	.	.
12F#\J 12A# 12f#	.	.
=23	=23	=23
12BBB/	4d#X/ 4f# 4g#	>
12BB\L 12D#X	.	.
12D#\ 12G#	.	.
12G#\ 12B	4d#\ 4f# 4g# 4dd#X	]
12D#\ 12G#	.	.
12BB\J 12D#	.	.
12CC#/	4c#:/ 4f#: 4a#X: 4cc#:	.
12C#\L 12F# 12A#X	.	.
12F#\J 12A# 12c#	.	.
12CC#\L	8.B/L 8.e#X 8.g#	p
12C#\ 12E#X 12G#	.	.
12E#\J 12G# 12B	.	.
.	16a#/Jk	.
=24	=24	=24
24FF#\LL	4f#/	p
24C#\	.	.
24A#X\	.	.
24C#\	.	.
24A#\	.	.
24C#\JJ	.	.
24FF#\LL	4r	.
24C#\	.	.
24A#\	.	.
24C#\	.	.
24A#\	.	.
24C#\JJ	.	.
24FF#\LL	2r	.
24C#\	.	.
24An\	.	.
24C#\	.	.
24A\	.	.
24C#\JJ	.	.
24FF#\LL	.	.
24C#\	.	.
24A\	.	.
24C#\	.	.
24A\	.	.
24C#\JJ	.	.
==25	==25	==25
*k[f#c#g#]	*k[f#c#g#]	*
*M12/8	*M12/8	*
!	!LO:TX:a:t=Allegro appasionato	!
16FF#\LL	8r	p
16C#\	.	.
16A\	(8f#/L	.
16C#\	.	.
16FF#\	8g#/J)	.
16C#\JJ	.	.
16FF#\LL	8r	.
16C#\	.	.
!	!LO:TX:b:i:t=   con agitazione	!
16A\	(8a/L	.
16C#\	.	.
16FF#\	8b/J)	.
16C#\JJ	.	.
16FF#\LL	(8cc#\L	.
16C#\	.	.
16A\	8cc#\	.
16C#\	.	.
16FF#\	8ff#\J)	.
16C#\JJ	.	.
16GG#\LL	4ee\	sf >
16E\	.	.
16G#\	.	.
16E\	.	.
16GG#\	8b\	]
16E\JJ	.	.
=26	=26	=26
!	!LO:TX:b:i:t=ten	!
16AA\LL	[4.cc#\	.
16C#\	.	.
16E\	.	.
16A\	.	.
16c#\	.	.
16A\JJ	.	.
16C#\LL	(8cc#\L]	.
16E#X\	.	.
16G#\	8g#\	.
16E#\	.	.
16C#\	8b\J)	.
16E#\JJ	.	.
16FF#\LL	8a\L	>
16C#\	.	.
16A\	16a\L	.
16C#\	16g#\J	.
16A\	8f#\J	]
16C#\JJ	.	.
16FF#\LL	8r	.
16C#\	.	.
16A\	(8f#/L	p
16C#\	.	.
16A\	8c#/J)	.
16C#\JJ	.	.
=27	=27	=27
*^	*	*
16FF#/LL	2.ryy	8r	.
16C#/	.	.	.
16A/	.	(8f#/L	.
16C#/	.	.	.
16FF#/	.	8g#/J)	.
16C#/JJ	.	.	.
16FF#/LL	.	8a/	.
16C#/	.	.	.
16A/	.	(8a/L	<
16C#/	.	.	.
16FF#/	.	8b/J)	.
16C#/JJ	.	.	.
16FF#/LL	4.ryy	8.cc#^^\L	.
16C#/	.	.	.
16A/	.	.	.
16C#/	.	(16aa\L	.
16FF#/	.	16gg#\	.
16C#/JJ	.	16ff#\JJ	.
16GG#/LL	4GG#\	4ee#X\)	[ sf
16D/	.	.	.
16G#/	.	.	.
16D/JJ	.	.	.
16AA/LL	8AA\	[8ff#^^\	.
16A/JJ	.	.	.
=28	=28	=28	=28
16AA#X/LL	4AA#\	8ff#\L]	sf
16F#/	.	.	.
16A#X/	.	8een\	.
16F#/	.	.	.
16AA#/	8AA#\	8cc#\J	.
16A#/JJ	.	.	.
16BB/LL	4BB\	8ee^^\L	>
16F#/	.	.	.
16B/	.	(16dd\L	.
16F#/	.	16cc#\J	.
16BB/	8BB\	8b\J)	]
16F#/JJ	.	.	.
16C#\LL 16E#X	4ryy	(8cc#\L	p
16G#\	.	.	.
16c#\	.	8g#\	.
16G#\	.	.	.
16C#\	8ryy	[8b\J	.
16G#\JJ	.	.	.
16F#\LL	4ryy	8b\L]	.
16An\	.	.	.
16c#\	.	16an\L	.
16A\	.	16g#\J	.
16F#\	8ryy	[8f#^^\J)	.
16A\JJ	.	.	.
*v	*v	*	*
=29	=29	=29
16F#\LL	(8f#/L]	<
16A\	.	.
16c#\	8f#/	.
16A\	.	.
16F#\	8g#/J	.
16A\JJ	.	.
16C#\LL	8e#X/L	.
16G#\	.	.
16c#\	8e#/	.
16G#\	.	.
16C#\	8f#/J	[
16G#\JJ	.	.
16C#\LL	8g#/L	>
16E#X\	.	.
16G#\	8cc#/	.
16B\	.	.
16E#\	8g#/J	.
16B\JJ	.	.
16F#\LL	8b/L	.
16A\	.	.
16c#\	16a/L	.
16A\	16g#/J	.
16F#\	[8f#/J)	]
16A\JJ	.	.
=30	=30	=30
16F#\LL	(8f#/L]	<
16A\	.	.
16c#\	8f#/	.
16A\	.	.
16F#\	8g#/J	.
16A\JJ	.	.
16C#\LL	8e#X/L	.
16G#\	.	.
16c#\	8e#/	.
16G#\	.	.
16C#\	8f#/J	[
16G#\JJ	.	.
16C#\LL	8g#/L	>
16E#X\	.	.
16G#\	8cc#/	.
16B\	.	.
16E#\	8g#/J	.
16B\JJ	.	.
16F#\LL	8b/L	.
16A\	.	.
16c#\	16a/L	.
16A\	16g#/J	.
16F#\	8f#/J)	]
16A\JJ	.	.
=31	=31	=31
16FF#\LL	8r	.
16C#\	.	.
16F#\	(8f#/L	<
16A\	.	.
16F#\	8c#/J)	.
16C#\JJ	.	.
16FF#/LL	8r	.
16C#/	.	.
16A/	(8f#/L	.
16C#/	.	.
16A/	8g#/J)	.
16C#/JJ	.	.
16FF#/LL	8r	.
16C#/	.	.
16A/	(8a/L	.
16C#/	.	.
16A/	8b/J)	.
16C#/JJ	.	.
16FF#/LL	8.cc#^^\L	.
16C#/	.	.
16A/	.	.
16C#/	(16aa\L	.
16A/	16gg#\	.
16C#/JJ	16ff#\JJ	[
=32	=32	=32
*^	*	*
16GG#/LL	4GG#\	4ee#X^^\)	.
16D/	.	.	.
16A/	.	.	.
16D/	.	.	.
16AA/	8AA\	[8ff#^^\	.
16A/JJ	.	.	.
16AA#X\LL	4AA#/	8ff#\L]	.
16F#\	.	.	.
16A#X\	.	(16een\L	.
16F#\	.	16dd\J	.
16AA#\	8AA#/	8cc#\J)	.
16A#\JJ	.	.	.
16BB\LL	4BB/	8ee^^\L	>
16F#\	.	.	.
16B\	.	(16dd\L	.
16F#\	.	16cc#\J	.
16BB\	8BB/	8b\J)	.
16F#\JJ	.	.	.
16C#\LL	4C#/	8cc#^^\L	.
16E#X\	.	.	.
16G#\	.	(16b\L	.
16E#\	.	16an\J	.
*v	*v	*	*
16B\	8g#\J)	]
16E#\JJ	.	.
=33	=33	=33
16FF#\LL	8b^^/L	.
16C#\	.	.
16A\	(16a/L	.
16C#\	16g#/J	.
16A\	8f#/J)	.
16C#\JJ	.	.
16FF#\LL	8r	<
16C#\	.	.
16A\	(8f#/L	.
16C#\	.	.
16A\	8c#/J)	.
16C#\JJ	.	.
16FF#\LL	8r	.
16C#\	.	.
16A\	(8f#/L	.
16C#\	.	.
16A\	8g#/J)	.
16C#\JJ	.	.
16FF#\LL	8r	.
16C#\	.	.
16A\	(8a/L	.
16C#\	.	.
16A\	8b/J)	[
16C#\JJ	.	.
=34	=34	=34
16AA\LL	8.cc#^^\L	f
16F#\	.	.
16A\	.	.
16F#\	(16ccc#m\L	.
16AA\	16bb\	.
16F#\JJ	16aa\JJ	.
16BB\LL	16gg#\LL	.
16D\	16ff#\	.
16G#\	16ee\	.
16B\	16dd\	.
16G#\	16cc#\	.
16D\JJ	16b\JJ)	.
16C#\LL	16a\LL	.
16c#\	16b\JJ	.
16F#\	[4cc#\	sf
16c#\	.	.
16A\	.	.
16c#\JJ	.	.
16C#\LL	16cc#\LL]	.
16c#\	16b#X\JJ	.
16E#X\	[4cc#\	sf
16c#\	.	.
16G#\	.	.
16c#\JJ	.	.
=35	=35	=35
16C#\LL	16cc#\LL]	.
16c#\	16b#X\JJ	.
16F#\	[4cc#\	sf
16c#\	.	.
16A\	.	.
16c#\JJ	.	.
16C#\LL	16cc#\LL]	.
16c#\	16b#\JJ	.
16E#X\	4cc#\	sf
16c#\	.	.
16G#\	.	.
16c#\JJ	.	.
16BB\LL	4.e#X^^\ 4.g# 4.dd	sf
16G#\	.	.
16B\	.	.
16G#\	.	.
16BB\	.	.
16G#\JJ	.	.
16AA\LL	8f#\L 8a 8cc#	>
16F#\	.	.
16A\	8f#\ 8a 8cc#	.
16F#\	.	.
16AA\	8f#\J 8a 8cc# 8ff#	]
16F#\JJ	.	.
=36	=36	=36
16BB\LL	(4.e#X\ 4.g# 4.dd	sf >
16G#\	.	.
16B\	.	.
16G#\	.	.
16BB\	.	.
16G#\JJ	.	.
16AA\LL	8f#\L) 8a 8cc#	]
16F#\	.	.
16A\	8f#\ 8a 8cc#	.
16F#\	.	.
16AA\	8f#\J 8a 8cc# 8ff#	.
16F#\JJ	.	.
16BB\LL	((([4.e#^^\ [4.g# [4.dd	.
16G#\	.	.
16B\	.	.
16G#\	.	.
16BB\	.	.
16G#\JJ	.	.
16AA\LL	8e#\L]))) 8g#] 8dd]	.
16F#\	.	.
16A\	8f#\ 8a 8cc#	.
16F#\	.	.
16AA\	8f#\J 8a 8cc# [8ff#	.
16F#\JJ	.	.
=37	=37	=37
16GG#\LL	8ff#\L]	.
16E#X\	.	.
16G#\	8b\ 8cc# 8ee#X	.
16E#\	.	.
16GG#\	8b\J 8cc# 8ff#	.
16E#\JJ	.	.
16EE#X\LL	4b\ 4cc# 4gg#	.
16C#\	.	.
16G#\	.	.
16C#\	.	.
16EE#\	8cc#\	.
16C#\JJ	.	.
16FF#\LL	4.a\ 4.cc# 4.aa	sf
16C#\	.	.
16F#\	.	.
16C#\	.	.
16F#\	.	.
16C#\JJ	.	.
16BB\LL	4b\ 4dd 4gg#	.
16D\	.	.
16G#\	.	.
16D\	.	.
16G#\	8ff#\	.
16D\JJ	.	.
=38	=38	=38
16C#\LL	4f#\ 4a 4cc#	.
16F#\	.	.
16A\	.	.
16c#\	.	.
16A\	16b#X\LL	.
16F#\JJ	16cc#\JJ	.
16C#\LL	(4e#X^^\ 4g# 4dd	.
16E#X\	.	.
16G#\	.	.
16c#\	.	.
16G#\	8cc#\)	>
16E#\JJ	.	.
16FF#\LL	4.f#/	]
16C#\	.	.
16A\	.	.
16C#\	.	.
16A\	.	.
16C#\JJ	.	.
16FF#\LL	8r	.
16C#\	.	.
16A\	(8f#/L	.
16C#\	.	.
16A\	8c#/J)	.
16C#\JJ	.	.
=39	=39	=39
16FF#\LL	8r	.
16C#\	.	.
16F#\	(8f#/L	.
16A\	.	.
16F#\	8g#/J	.
16C#\JJ	.	.
16FF#\LL	8r	.
16C#\	.	.
16F#\	8a\L	.
16A\	.	.
16F#\	8b\J	.
16C#\JJ	.	.
16FF#\LL	8cc#\L	.
16C#\	.	.
16F#\	8cc#\	.
16A\	.	.
16F#\	8ff#\J	.
16C#\JJ	.	.
16GG#\LL	4ee\	sf
16D\	.	.
16E\	.	.
16G#\	.	.
16E\	8b\)	.
16D\JJ	.	.
=40	=40	=40
!	!LO:TX:b:i:t=ten	!
16AA\LL	[4.cc#\	.
16E\	.	.
16A\	.	.
16E\	.	.
16AA\	.	.
16E\JJ	.	.
16C#\LL	(8cc#\L]	.
16E#X\	.	.
16G#\	8g#\	.
16E#\	.	.
16C#\	8b\J	.
16E#\JJ	.	.
16FF#\LL	8a\L	.
16C#\	.	.
16F#\	16a\L	.
16A\	16g#\J	.
16F#\	8f#^^\J)	.
16C#\JJ	.	.
16FF#\LL	8r	.
16C#\	.	.
16F#\	(8f#/L	.
16A\	.	.
16F#\	8c#/J)	.
16C#\JJ	.	.
=41	=41	=41
16FF#/LL	8r	.
16C#/	.	.
!	!	!LO:DY:a
16A/	(8f#/L	< <
16C#/	.	.
16A/	8g#/J)	.
16C#/JJ	.	.
16FF#/LL	8a\	.
16C#/	.	.
16A/	(8a\L	.
16C#/	.	.
16A/	8b\J)	.
16C#/JJ	.	.
16FF#/LL	8.cc#^^\L	[ [
16C#/	.	.
16A/	.	.
16C#/	(16aa\L	.
16A/	16gg#\	.
16C#/JJ	16ff#\JJ)	.
*^	*	*
16GG#/LL	4GG#\	(4ee#X\	.
16D/	.	.	.
16G#/	.	.	.
16D/JJ	.	.	.
16AA/LL	8AA\	[8ff#\)	sf
16A/JJ	.	.	.
=42	=42	=42	=42
16AA#X/LL	4AA#\	8ff#\L]	.
16F#/	.	.	.
16A#X/	.	(16een\L	.
16F#/	.	16dd\J	.
16AA#/	8AA#\	8cc#\J)	.
16A#/JJ	.	.	.
16BB\LL	8ryy	8ee^^\L	.
16F#\	.	.	.
16B\	1ryy	(16dd\L	.
16F#\	.	16cc#\J	.
16BB\	.	8b\J)	.
16F#\JJ	.	.	.
16C#\LL	.	8cc#\L	.
16E#X\	.	.	.
16G#\	.	8g#\	.
16c#\	.	.	.
16G#\	.	[8b\J	.
16E#\JJ	.	.	.
16F#\LL	.	8b\L]	.
16An\	.	.	.
16c#\	.	16a\L	.
16A\	.	16g#\J	.
16F#\	.	[8f#\J	.
16A\JJ	.	.	.
*v	*v	*	*
=43	=43	=43
16F#\LL	(8f#/L]	p
16A\	.	.
16c#\	8f#/	.
16A\	.	.
16F#\	8g#/J	.
16A\JJ	.	.
16C#\LL	8e#X/L	<
16G#\	.	.
16c#\	8e#/	.
16G#\	.	.
16C#\	8f#/J	.
16G#\JJ	.	.
16C#\LL	8g#/L	.
16E#X\	.	.
16G#\	8cc#/	.
16B\	.	.
16E#\	8g#/J	[ >
16B\JJ	.	.
16F#\LL	8b/L	.
16A\	.	.
16c#\	16a/L	.
16A\	16g#/J	.
16F#\	[8f#/J)	]
16A\JJ	.	.
=44	=44	=44
16F#\LL	(8f#/L]	<
16A\	.	.
16c#\	8f#/	.
16A\	.	.
16F#\	8g#/J	.
16A\JJ	.	.
16C#\LL	8e#X/L	.
16G#\	.	.
16c#\	8e#/	.
16G#\	.	.
16C#\	8f#/J	[
16G#\JJ	.	.
16C#\LL	8g#\L	>
16E#X\	.	.
16G#\	8.dd^^\	.
16B\	.	.
16E#\	.	.
16B\JJ	16cc#\Jk)	.
16F#\LL	8cc#\L	.
16A\	.	.
16c#\	16a\L	.
16A\	16g#\J	.
16F#\	[8f#^^\J	]
16A\JJ	.	.
=45	=45	=45
16F#\LL	8f#/L]	.
16A\	.	.
16c#\	8f#/	.
16A\	.	.
16F#\	8c#/J	.
16A\JJ	.	.
16FF#\LL	4.f#/	.
16C#\	.	.
16A\	.	.
16C#\	.	.
16A\	.	.
16C#\JJ	.	.
16FF#\LL	8r	pp
16C#\	.	.
16A\	(8f#/L	<
16C#\	.	.
16A\	8g#/J)	.
16C#\JJ	.	.
16FF#\LL	8a/	.
16C#\	.	.
16A\	(8a/L	.
16C#\	.	.
16A\	8b/J)	[
16C#\JJ	.	.
=46	=46	=46
16FF#\LL	8.cc#^^\L	.
16C#\	.	.
16A\	.	.
16C#\	(16aa\L	.
16A\	16gg#\	.
16C#\JJ	16ff#\JJ	.
16GG#\LL	4ee#X\)	sf >
16D\	.	.
16G#\	.	.
16D\JJ	.	.
16AA\LL	[8ff#\	]
16F#\JJ	.	.
16AA#X\LL	8ff#\L]	>
16F#\	.	.
16A#X\	16een\L	.
16F#\	16dd\J	.
16AA#\	8cc#\J	.
16F#\JJ	.	.
16BB\LL	8ee^^\L	.
16F#\	.	.
16B\	16dd\L	.
16F#\	16cc#\J	.
16BB\	8b\J	]
16F#\JJ	.	.
=47	=47	=47
16C#\LL	8cc#^^\L	.
16E#X\	.	.
16B\	16b\L	.
16E#\	16an\J	.
16B\	8g#\J	.
16E#\JJ	.	.
16F#\LL	8b^^/L	.
16A\	.	.
16c#\	(16a/L	.
16A\	16g#/J	.
16F#\	8f#^^/J)	.
16A\JJ	.	.
16FF#\LL	8r	.
16C#\	.	.
16A\	(8f#/L	.
16C#\	.	.
16FF#\	8g#/J)	.
16C#\JJ	.	.
16FF#\LL	8a/	.
16C#\	.	.
16A\	(8a/L	.
16C#\	.	.
16FF#\	8b/J)	.
16C#\JJ	.	.
=48	=48	=48
16AA\LL	8.cc#\L	f
16A\	.	.
16F#\	.	.
16A\	(16ccc#\L	.
16C#\	16bb\	.
16F#\JJ	16aa\JJ	.
16BB\LL	16gg#\LL	.
16D\	16ff#\	.
16G#\	16ee\	.
16D\	16dd\	.
16BB\	16cc#\	.
16D\JJ	16b\JJ)	.
16C#\LL	16a\LL	.
16c#\	16b\JJ	.
16F#\	[4cc#\	sf
16c#\	.	.
16A\	.	.
16c#\JJ	.	.
16C#\LL	16cc#\LL]	.
16c#\	16b#X\JJ	.
16E#X\	[4cc#\	sf
16c#\	.	.
16G#\	.	.
16c#\JJ	.	.
=49	=49	=49
16C#\LL	16cc#\LL]	.
16c#\	16b#X\JJ	.
16F#\	[4cc#\	sf
16c#\	.	.
16A\	.	.
16c#\JJ	.	.
16C#\LL	16cc#\LL]	.
16c#\	16b#\JJ	.
16E#X\	4cc#\	sf
16c#\	.	.
16G#\	.	.
16c#\JJ	.	.
16BB\LL	4.e#X\ 4.g# 4.dd	sf
16G#\	.	.
16B\	.	.
16G#\	.	.
16BB\	.	.
16G#\JJ	.	.
16AA\LL	8f#\L 8a 8cc#	>
16F#\	.	.
16A\	8f#\ 8a 8cc#	.
16F#\	.	.
16AA\	8f#\J 8a 8cc# 8ff#	]
16F#\JJ	.	.
=50	=50	=50
16BB\LL	4.e#X\ 4.g# 4.dd	sf
16G#\	.	.
16B\	.	.
16G#\	.	.
16BB\	.	.
16G#\JJ	.	.
16AA\LL	8f#\L 8a 8cc#	>
16F#\	.	.
16A\	8f#\ 8a 8cc#	.
16F#\	.	.
16AA\	8f#\J 8a 8cc# 8ff#	]
16F#\JJ	.	.
16BB\LL	4.e#^^\ 4.g# 4.dd	.
16G#\	.	.
16B\	.	.
16G#\	.	.
16BB\	.	.
16G#\JJ	.	.
16BB-X\LL	(4.fn\ 4.g# 4.dd	.
16Fn\	.	.
16B-X\	.	.
16F\	.	.
16BB-\	.	.
16F\JJ	.	.
=51	=51	=51
16AA\LL	4.f#X\ 4.a 4.dd	<
16F#X\	.	.
16A\	.	.
16F#\	.	.
16AA\	.	.
16F#\JJ	.	.
16AA\LL	4.e\ 4.a 4.cc#	[
16E\	.	.
16A\	.	.
16E\	.	.
16AA\	.	.
16E\JJ	.	.
16GG#\LL	4.d#X\ 4.f# 4.cc#	.
16D#X\	.	.
16G#\	.	.
16D#\	.	.
16GG#\	.	.
16D#\JJ	.	.
16GG#\LL	4.d#\ 4.f# 4.ccn	.
16D#\	.	.
16G#\	.	.
16D#\	.	.
16GG#\	.	.
16D#\JJ	.	.
=52	=52	=52
16GGn\LL	4.dn\) 4.fn 4.ccn	.
16Dn\	.	.
16Gn\	.	.
16D\	.	.
16GG\	.	.
16D\JJ	.	.
16GG\LL	4.d\ 4.f 4.b	.
16D\	.	.
16G\	.	.
16D\	.	.
16GG\	.	.
16D\JJ	.	.
16FF#\LL	4.c#\ 4.f#X 4.b	.
16C#\	.	.
16F#\	.	.
16C#\	.	.
16FF#\	.	.
16C#\JJ	.	.
16FF#\LL	4.c#\ 4.f# 4.a#X	.
16C#\	.	.
16F#\	.	.
16C#\	.	.
16FF#\	.	.
16C#\JJ	.	.
=53	=53	=53
*X8	*	*
16DD/LL	[4.cn\ [4.f# [4.an	fp
16AA/	.	.
16D/	.	.
16AA/	.	.
16DD/	.	.
16AA/JJ	.	.
16DD/LL	8c\L] 8f#] 8a]	.
16AA/	.	.
16D/	8g#\	.
16AA/	.	.
16DD/	8f#\J	.
16AA/JJ	.	.
16CC#/LL	4.c#X^^\ 4.f# 4.a [4.cc#X	sf >
16FF#/	.	.
16AA/	.	.
16C#/	.	.
16AA/	.	.
16FF#/JJ	.	.
16CC#/LL	(8c#\L 8f# 8a 8cc#]	]
16EE#X/	.	.
16GG#/	8B\ 8e#X 8g#	.
16C#/	.	.
16GG#/	8a\J)	.
16EE#/JJ	.	.
=54	=54	=54
16FF#/LL	8A/L 8c# 8f#	.
16C#/	.	.
16F#/	8A/ 8c# 8f#	.
16C#/	.	.
16FF#/	8g#/J	.
16C#/JJ	.	.
16FF#/LL	8r	.
16C#/	.	.
16F#/	8c#/L 8f# 8a	.
16C#/	.	.
16FF#/	8b/J	.
16C#/JJ	.	.
!	!LO:TX:a:t=|	!
16FF#/LL	8cc#\L	.
16C#/	.	.
16F#/	(8f#\ 8a 8cc#	.
16C#/	.	.
16FF#/	8ff#\J	.
16C#/JJ	.	.
16FF#/LL	4e#X\ 4g# 4b 4dd	sf
16C#/	.	.
16F#/	.	.
16C#/	.	.
16FF#/	8cc#\)	.
16C#/JJ	.	.
=55	=55	=55
16FF#/LL	8r	.
16C#/	.	.
16F#/	8A/L 8c# 8f#	.
16C#/	.	.
16FF#/	8g#/J	.
16C#/JJ	.	.
16FF#/LL	8a/L	.
16C#/	.	.
16F#/	8c#/ 8f# 8a	.
16C#/	.	.
16FF#/	8b/J	.
16C#/JJ	.	.
16FF#/LL	8f#\L 8a 8cc#	.
16C#/	.	.
16F#/	8f#\ 8a 8cc#	.
16C#/	.	.
16FF#/	8ff#\J	.
16C#/JJ	.	.
16FF#\LL	(4e#X\ 4g# 4b 4dd	sf >
16C#\	.	.
16G#\	.	.
16C#\	.	.
16G#\	8cc#\)	]
16C#\JJ	.	.
=56	=56	=56
*^	*	*
16FF#/LL	4FF#\	8r	.
16C#/	.	.	.
16F#/	.	(8A/L 8c# 8f#	pp
16C#/	.	.	.
16FF#/	8FF#\	8g#/J	.
16C#/JJ	.	.	.
16FF#/LL	4FF#\	8A/L 8c# 8a	.
16C#/	.	.	.
16F#/	.	8A/ 8c# 8f#	.
16C#/	.	.	.
16FF#/	8FF#\	8A/J 8c# 8g#	.
16C#/JJ	.	.	.
16FF#/LL	4FF#\	8A/L 8c# 8a	.
16C#/	.	.	.
16F#/	.	8A/ 8c# 8f#	.
16C#/	.	.	.
16FF#/	8FF#\	8A/J 8c# 8g#	.
16C#/JJ	.	.	.
16FF#/LL	4FF#\	8A/L 8c# 8a	.
16C#/	.	.	.
16F#/	.	8A/ 8c# 8f#	.
16C#/	.	.	.
16FF#/	8FF#\	8A/J) 8c# 8g#	.
16C#/JJ	.	.	.
=57	=57	=57	=57
16FFF#/LL	8FFF#\L	[2.A/ [2.c# [2.f#	ppp
16FF#/	.	.	.
16CC#/	8CC#\	.	.
16FF#/	.	.	.
16AAA/	8AAA\J	.	.
16FF#/JJ	.	.	.
16FFF#/LL	8FFF#\L	.	.
16FF#/	.	.	.
16CC#/	8CC#\	.	.
16FF#/	.	.	.
16AAA/	8AAA\J	.	.
16FF#/JJ	.	.	.
*v	*v	*	*
4.FFF#\	4.A/] 4.c#] 4.f#]	.
*X8	*	*
4.r;	4.r;	.
==58	==58	==58
!	!LO:TX:a:t=Piu tenuto	!
2.r	(8a\L 8cc#	p
.	8e\	.
.	8a\J 8cc#	.
!	!LO:TX:b:i:t=con melancolia	!
.	8a\L 8cc#	.
.	8e\	.
.	8a\J 8cc#	.
4.r	8a\L 8b	.
.	8e\	.
.	8a\J 8b	.
8r	8a\L 8cc#	.
8.r	8f#\	.
.	8a\J 8cc#	pp
(16F#\	.	.
=59	=59	=59
8B\)	8b\L 8dd	.
8r	8f#\	.
8r	8b\J 8dd	.
8E\	8b\L 8ee	.
8.r	8e\	.
.	8b\J 8dd	.
16G#\	.	.
8A\	8a\L 8cc#	.
8r	8e\	.
8r	8a\J 8cc#	.
4r	8cc#\L 8ee	.
.	8e\	.
8r	8a\J 8cc#	.
=60	=60	=60
4.E\	8g#\L 8b	.
.	8e\	.
.	8g#\J 8b	.
4E#X\	8g#\L 8cc#	.
.	8c#\	.
16r	8g#\J 8b	.
16E#\	.	.
8F#\	8f#\L 8a	<
8r	8c#\	.
8r	8f#\J 8a	.
4D\	8f#\L 8b	.
.	8d\	.
16r	8f#\J 8b#X	[
16D\	.	.
=61	=61	=61
(2.C#/	8e#X\L 8g# 8cc#	fp
.	8c#\	.
.	8e#\J 8g# 8cc#	.
.	8e#\L 8g# 8cc#	.
.	8c#\	.
.	16b\L	.
.	16a\JJ	.
4CC#/)	8e#X\L 8g#	.
.	8c#\	.
8r	8e#\J 8g#	.
4r	8e#\L 8g#	.
.	8c#\	.
8r	8cc#\J)	.
=62	=62	=62
4AA\ 4A	(8a\L 8cc#	.
.	8e\	.
8r	8a\J 8cc#	.
4.r	8a\L 8cc#	.
.	8e\	.
.	8a\J 8cc#	.
8EE\ 8E	8g#\L 8b	.
8r	8e\	.
8r	8g#\J 8b	.
8FF#\ 8F#	8a\L 8cc#	.
8r	8c#\	.
8r	8a\J 8cc#	.
=63	=63	=63
4.BBB\ 4.BB	8b\L 8dd	.
.	8f#\	.
.	8b\J 8dd	.
4EE\ 4E	8b\L 8ee	.
.	8e\	.
16r	8b\J 8dd	.
16GG#\ 16G#	.	.
4AA\ 4A	8a\L 8cc#	<
!	!LO:TX:b:i:t=dolce	!
.	8e\	.
8r	8cc#\J 8ee	[
4.r	8ee\L 8aa	>
.	8cc#\ 8ee	.
.	8a\J) 8cc#	]
=64	=64	=64
*	*^	*
4.DD\ 4.D	(4b/	8f#\L	.
.	.	8d\	.
.	8b/	8f#\J	.
4D:\ 4F#: 4B:	4cc#/	8f#\L	.
.	.	8d\	.
8r	8dd/	8dd\J	.
4.EE\ 4.E	4cc#/	8a\L	.
.	.	8e\	.
.	8ryy	8a\J 8cc#	.
4r	4cc#/	8a\L	.
.	.	8e\	.
8r	8ryy	8a\J) 8cc#	.
=65	=65	=65	=65
4EE\ 4E	(4b/	8g#\L	.
.	.	8e\	.
8r	8a#X/	8a#\J	.
8E:\ 8B: 8e:	4b/	8g#\L	p
8r	.	8d\	.
8r	8cc#/	8e\J	.
(4.A\	8r	2.ryy	.
.	8c#/L	.	>
.	8e/J	.	.
8AA/)	8an/L	.	.
8r	8e/	.	.
8r	8c#/J)	.	]
*	*v	*v	*
=66	=66	=66
4.EE\ 4.E	8e/L 8g# 8b	f
.	8B/	.
.	8e/J 8g# 8b	.
8E:\ 8G#: 8B:	8e/L 8g# 8b	.
8r	8B/	.
8r	8e/J 8g# 8b	.
4.EE\ 4.E	8e/L 8a 8cc#	.
.	8c#/	.
.	8e/J 8a 8cc#	.
8E:\ 8G#: 8B: 8e:	8g#/L 8b 8dd	.
8r	8e/	.
8r	8g#/J 8b 8dd	.
=67	=67	=67
*	*^	*
4.EE\ 4.E	8a/L 8cc# 8ee	2.ryy	<
.	8f#/	.	[
.	8a/J 8cc# 8ee	.	.
8E:\ 8A: 8c#: 8e:	8cc#/L 8ff#	.	.
8r	8.a/	.	.
8r	.	.	.
.	16gg#/Jk	.	sf
4EE\ 4E	4.bb/	8cc#\L	.
.	.	8a\	.
8r	.	8cc#\J	.
8E:\ 8A: 8c#: 8e:	4.aa/	8cc#\L	.
8r	.	8a\	.
8r	.	8cc#\J	.
=68	=68	=68	=68
4AAA/ 4AA	4aa/	8cc#\L	.
.	.	8a\	.
8r	8aa/	8cc#\J	.
8A:\ 8cn: 8f#:	4gg#/	8dd#X\L	.
8r	.	8a\	.
8r	8ff#/	8ff#\J	.
4AAA/ 4AA	4ee/	8a\L 8cc#	.
.	.	8e\	.
8r	8ryy	8a\J 8cc# 8ee	.
8E:\ 8A: 8c#X:	4ryy	8a\L 8cc#	.
8r	.	8e\	.
8r	8ryy	8a\J 8cc# 8ee	.
*	*v	*v	*
=69	=69	=69
4.BBB/ 4.BB	8a\L 8b 8dd#X	f
.	8f#\	.
.	8a\J 8b 8dd#	.
4B:\ 4d#X: 4f#:	8dd#\L 8ff#	.
.	8a\	.
16r	8dd#\J 8ff# 8aa	.
16BBB#X/ 16BB#X	.	.
4.BBB#/ 4.BB#	8dd#\L 8ff# 8aa	.
.	8a\	.
.	8dd#\J 8ff# 8aa	.
4CC#/ 4C#	8ee\L 8gg#	.
.	8g#\	.
8r	8ee\J 8gg#	.
=70	=70	=70
*	*^	*
4.DD/ 4.D	(4ff#/	8b\L	.
.	.	8f#\	.
.	8ff#/	8ff#\J	.
4D:\ 4F#: 4B: 4d:	4gg#/	8b\L	p
.	.	8f#\	.
16r	8ff#/)	8ff#\J	.
16DD/ 16D	.	.	.
4.CC#/ 4.C#	4.ryy	8a\L 8ee	.
.	.	8e\	.
.	.	8a\J 8ee	.
4.DD/ 4.D	(4ff#/	8a\L	>
.	.	8f#\	.
.	8b/)	8a\J	]
=71	=71	=71	=71
4.EE/ 4.E	4cc#/	8a\L	p
.	.	8e\	.
.	8cc#/	8a\J	.
4E:\ 4G#: 4B:	4b/	8g#\L	.
.	.	8d\	.
8r	8cc#/	8e\J	.
4AA\ 4A	8a/	8c#\	.
.	(8c#/L	4ryy	.
8r	8f#/J	.	.
4.r	8e/L	4.ryy	.
.	8c#/	.	.
.	8A/J)	.	.
*	*v	*v	*
=72	=72	=72
*^	*	*
!	!	!LO:TX:b:i:t=m.g.	!LO:DY:a
4.B/	8EE\	8ryy	pp
!	!	!LO:TX:b:i:t=pesante	!
.	8ryy	(8e/L 8g#	f
.	8ryy	8g#/ 8b	.
4B/	4ryy	8ee/	.
.	.	8g#/ 8b	.
16r	8ryy	8e/J) 8g#	.
16B/	.	.	.
4.c#/	8CC#\	8ryy	.
.	8ryy	(8e#X/L 8g#	.
.	8ryy	8g#/ 8cc#	.
4B/	4ryy	8ee#X/	.
.	.	8g#/ 8cc#	.
16r	8ryy	8e#/J) 8g#	.
16c#/	.	.	.
=73	=73	=73	=73
4.A/	8FF#\	8ryy	.
.	8ryy	(8c#/L 8f#	.
.	8ryy	8a/J 8cc#	.
4G#/	8CC#\	8ryy	.
.	8ryy	8c#/L 8e#X 8g#	.
16r	4FF#\	8e#/J) 8g# 8cc#	.
16F#/	.	.	.
4.F#/	.	8ryy	.
.	8ryy	(8c#/L 8f#	.
.	8ryy	8f#/ 8a	.
16r	4ryy	8a/ 8cc#	<
16F#/LL	.	.	.
16G#/	.	8f#/ 8a	.
16F#/	.	.	.
16E#X/	8ryy	8c#/J) 8f#	[
16F#/JJ	.	.	.
=74	=74	=74	=74
!LO:TX:b:i:t=m.g.	!	!	!
8qF#/	.	.	.
4.d/	8BBB\	8ryy	.
.	8ryy	(8f#/L 8b	.
.	8ryy	8b/ 8dd	.
4d/	4ryy	8ff#/	.
.	.	8b/ 8dd	.
(8d/	8ryy	8f#/J) 8b	.
*v	*v	*	*
*	*X8	*
*^	*	*
4.F#/)	8DD\	8ryy	.
.	8ryy	(8d/L 8f#	.
.	8ryy	8f#/ 8b	.
4F#/	4ryy	8b/ 8dd	.
.	.	8f#/ 8b	.
16r	8ryy	8d/J) 8f#	.
16G#/	.	.	.
=75	=75	=75	=75
[2G#/	8EE\	8ryy	.
.	8ryy	(8e/L 8g#	.
.	8ryy	8g#/ 8b	.
.	4ryy	8ee/	.
32G#/LLL]	.	8g#/ 8b	.
32A/	.	.	.
32A#X/	.	.	.
32B/	.	.	.
32An/	8ryy	8e/J) 8g#	.
32G#/	.	.	.
32A/	.	.	.
32F#/JJJ	.	.	.
[4.E/	8EE\	8ryy	.
.	8ryy	(8e/L 8g#	.
.	8ryy	8g#/ 8b	.
4E/]	4ryy	8b/ 8ee	.
.	.	8g#/ 8b	.
(8E/	8ryy	8e/J) 8g#	.
=76	=76	=76	=76
!	!	!	!LO:DY:a
4.c#/)	8AA\	8ryy	pp f
.	8ryy	(8e/L 8a	.
.	8ryy	8a/ 8cc#	.
4c#/	4ryy	8cc#/ 8ee	.
.	.	8a/ 8cc#	.
8c#/	8ryy	8e/J) 8a	.
(4.B/	8EE\	8ryy	.
.	8ryy	8e/L 8g# 8b	.
.	8ryy	8g#/J 8b 8ee	.
4.c#/	8FF#\	8ryy	.
.	8ryy	8f#/L 8a#X 8cc#	.
.	8ryy	8a#/J 8cc# 8ee	.
=77	=77	=77	=77
4.d/	8BBB\	8ryy	sf
.	8ryy	(8b/L 8dd	.
.	8ryy	8f#/J 8b	.
4e/)	4ryy	8g#/L	.
.	.	8g#/ 8b	.
16r	8ryy	8ee/J)	.
16B/	.	.	.
4.c#/	8AA\	(8a/L 8cc#	.
.	8ryy	8cc#/) 8ee	.
!	!	!LO:TX:a:t=|	!
.	8ryy	8aa/J	.
4ryy	8ryy	[4a^\	.
!LO:TX:b:i:t=m.g.	!	!	!
.	8AA\L 8C# 8E	.	.
!	!	!LO:TX:t=P:problem:mixed beam	!
8ryy	8C#\J 8E 8A	16a\LL]	.
.	.	16c#\JJ	.
=78	=78	=78	=78
4.B/	8DD\	8ryy	sf
!	!	!LO:TX:b:i:t=dolce	!
.	8ryy	(8d/L 8f#	.
.	8ryy	8f#/J 8b	.
4c#/	4ryy	8r	.
.	.	8b/L 8dd	.
8d/	8ryy	8f#/J) 8b	.
[4.c#/	8EE\	8ryy	.
.	8ryy	(8e/L 8a	.
.	8ryy	8a/ 8cc#	.
4c#/]	4ryy	8cc#/ 8ee	.
.	.	8a/ 8cc#	.
16r	8ryy	8e/J) 8a	.
16c#/	.	.	.
=79	=79	=79	=79
4B/	8EE\	8ryy	.
.	8ryy	(8e/L 8g#	.
16r	8ryy	8g#/ 8b	.
16A#X/	.	.	.
4B/	4ryy	8g#/ 8ee	.
.	.	8g#/ 8b	>
16r	8ryy	8e/J) 8g#	]
16c#/	.	.	.
8An/	8AA\	8ryy	.
8E/L 8A 8c#	8ryy	8r	.
8A/J 8c# 8e	8ryy	8r	.
!	!	!LO:TX:a:t=m.d.	!
8FF#/	4ryy	(4.a#X\	.
8F#/L 8A#X 8c#	.	.	.
8F#/J 8c# 8e	8ryy	.	.
*v	*v	*	*
=80	=80	=80
8DD/	4cc#^^\	.
8D\L 8F# 8B	.	.
8F#\J 8B 8d	8b\)	.
8EE/	(8.an/L	.
8E\L 8G# 8B	.	.
.	16g#/L	.
8G#\J 8B 8d	16f#/	.
.	16e/JJ	.
.	(8qe/	.
8AA/	4.a/))	.
8E\L 8A 8c#	.	.
8A\J 8c# 8e	.	.
8FF#/	4.a#Xt/	sf > ]]
8F#\L 8A#X 8c#	.	.
8F#\J 8c# 8e	.	.
=81	=81	=81
!	!LO:TX:b:i:t=com dolcezza	!
!	!LO:TX:t=P:problem:siedmiola oznaczona 7	!
8DD/	(56%3b\LL	.
.	56%3cc#\	.
.	56%3b\	.
8D\L 8F# 8B	.	.
.	56%3a#X\	.
.	56%3b\	.
8F#\J 8B 8d	.	.
.	8qb/	.
.	56%3gg#\	.
.	56%3ff#\JJ	.
8EE/	16ee\LL	.
.	16cc#\	.
8E\L 8G# 8B	16dd\	p
.	16b\	.
8B\J 8d	16g#\	.
.	16e\JJ	.
8C#\L	4.an\)	.
8E\ 8A	.	.
8A\ 8c#	.	.
8c#\ 8e	(4a\	.
8A\ 8c#	.	.
8E\J 8A	8b\	.
=82	=82	=82
*X8	*	*
!	!LO:TX:b:i:t=ritard	!
8AA\L	(4.cc#\)	.
8G#\ 8B	.	.
8B\J 8c#	.	.
8c#\L 8e#X	4.cc#\	.
8B\ 8c#	.	.
8G#\J 8B	.	.
16FF#\LL	8f#/)	.
16C#\	.	.
16A\	8r	.
16C#\	.	.
16A\	8r	.
16C#\JJ	.	.
16FF#\LL	4.r	.
16C#\	.	.
16A\	.	.
16C#\	.	.
16A\	.	.
16C#\JJ	.	.
==83	==83	==83
*k[f#c#g#]	*k[f#c#g#]	*
*M12/8	*M12/8	*
!	!LO:TX:a:t=Tempo 1.° con agitazione	!
16FF#\LL	8r	p
16C#\	.	.
16A\	(8f#/L	.
16C#\	.	.
16FF#\	8g#/J)	.
16C#\JJ	.	.
16FF#\LL	8r	.
16C#\	.	.
16A\	(8a/L	.
16C#\	.	.
16FF#\	8b/J)	.
16C#\JJ	.	.
16FF#\LL	(8cc#\L	.
16C#\	.	.
16A\	8cc#\	.
16C#\	.	.
16FF#\	8ff#\J	.
16C#\JJ	.	.
16GG#\LL	4ee\)	sf >
16E\	.	.
16G#\	.	.
16E\	.	.
16GG#\	8b\	]
16E\JJ	.	.
=84	=84	=84
!	!LO:TX:b:i:t=ten	!
16FF#\LL	[4.cc#\	.
16C#\	.	.
16A\	.	.
16C#\	.	.
16FF#\	.	.
16C#\JJ	.	.
16C#\LL	8cc#\L]	.
16E#X\	.	.
16G#\	(8g#\	.
16E#\	.	.
16C#\	8b\J	.
16E#\JJ	.	.
16FF#/LL	8a\L	.
16C#/	.	.
16F#/	16a\L	.
16A/	16g#\J	.
16F#/	8f#\J)	.
16C#/JJ	.	.
16FF#/LL	8r	.
16C#/	.	.
16F#/	(8f#/L	.
16A/	.	.
16F#/	8c#/J)	.
16C#/JJ	.	.
=85	=85	=85
*^	*	*
16FF#/LL	2.ryy	8r	.
16C#/	.	.	.
16A/	.	(8f#/L	<
16C#/	.	.	.
16FF#/	.	8g#/J)	.
16C#/JJ	.	.	.
16FF#/LL	.	8a/	.
16C#/	.	.	.
16A/	.	(8a/L	.
16C#/	.	.	.
16FF#/	.	8b/J)	.
16C#/JJ	.	.	.
16FF#/LL	4.ryy	8.cc#^^\L	[
16C#/	.	.	.
16A/	.	.	.
16C#/	.	(16aa\L	.
16FF#/	.	16gg#\	.
16C#/JJ	.	16ff#\JJ	.
16GG#/LL	4GG#\	4ee#X\)	.
16D/	.	.	.
16A/	.	.	.
16D/	.	.	.
16AA/	8AA\	[8ff#^^\	.
16A/JJ	.	.	.
=86	=86	=86	=86
!	!	!LO:TX:b:i:t=espres	!
16AA#X/LL	4AA#\	(8ff#\L]	.
16F#/	.	.	.
16A#X/	.	16ee\L	.
16F#/	.	16dd\J	.
16AA#/	8AA#\	8cc#\J)	.
16A#/JJ	.	.	.
16BB/LL	4ryy	(8ee^^\L	.
16F#/	.	.	.
16B/	.	16dd\L	.
16F#/	.	16cc#\J	.
16BB/	8ryy	8b\J)	.
16F#/JJ	.	.	.
16C#/LL	4ryy	(8cc#^^\L	.
16E#X/	.	.	.
16G#/	.	16b\L	.
16c#/	.	16an\J	.
16G#/	8ryy	8g#\J)	.
16E#/JJ	.	.	.
16F#/LL	4ryy	(8b^^\L	.
16A#/	.	.	.
16c#/	.	16a\L	.
16A#/	.	16g#\J	.
16F#/	8ryy	[8f#^^\J)	.
16A#/JJ	.	.	.
*v	*v	*	*
=87	=87	=87
16F#\LL	(8f#/L]	p
16A\	.	.
16c#\	8f#/	.
16A\	.	.
16F#\	8g#/J	.
16A\JJ	.	.
!	!LO:TX:b:i:t=semplice	!
16C#\LL	8e#X/L	.
16G#\	.	.
16c#\	8e#/	.
16G#\	.	.
16C#\	8f#/J	.
16G#\JJ	.	.
16C#\LL	8g#\L	.
16E#X\	.	.
16G#\	8cc#\	.
16B\	.	.
16E#\	8g#\J	.
16B\JJ	.	.
16F#\LL	8b\L	.
16A\	.	.
16c#\	16a\L	.
16A\	16g#\J	.
16F#\	[8f#\J)	.
16A\JJ	.	.
=88	=88	=88
16F#\LL	(8f#/L]	.
16A\	.	.
16c#\	8f#/	.
16A\	.	.
16F#\	8g#/J	.
16A\JJ	.	.
16C#\LL	8e#X/L	.
16G#\	.	.
16c#\	8e#/	.
16G#\	.	.
16C#\	8f#/J	.
16G#\JJ	.	.
16C#\LL	8g#/L	.
16E#X\	.	.
16G#\	8cc#/	.
16B\	.	.
16E#\	8g#/J	.
16B\JJ	.	.
16F#\LL	(8b^^/L	.
16A\	.	.
16c#\	16a/L	.
16A\	16g#/J	.
16F#\	8f#/J))	.
16A\JJ	.	.
=89	=89	=89
16F#\LL	8r	.
16A\	.	.
16c#\	8f#/L	p
16A\	.	.
16F#\	8c#/J	.
16A\JJ	.	.
16FF#\LL	8r	.
16C#\	.	.
16A\	(8f#/L	.
16C#\	.	.
16A\	8g#/J	.
16C#\JJ	.	.
16FF#\LL	8a\L)	.
16C#\	.	.
16A\	(8a\	.
16C#\	.	.
16A\	8b\J	.
16C#\JJ	.	.
16FF#\LL	8.cc#^^\L)	<
16C#\	.	.
16A\	.	.
16C#\	(16aa\L	.
16A\	16gg#\	.
16C#\JJ	16ff#\JJ	[
=90	=90	=90
*^	*	*
16GG#/LL	4GG#\	4ee#X\)	.
16D/	.	.	.
16A/	.	.	.
16D/	.	.	.
16AA/	8AA\	[8ff#\	.
16A/JJ	.	.	.
16AA#X/LL	4AA#\	8ff#\L]	.
16F#/	.	.	.
16A#X/	.	16een\L	.
16F#/	.	16dd\J	.
16AA#/	8AA#\	8cc#\J	.
16A#/JJ	.	.	.
16BB/LL	4BB\	8ee^^\L	.
16F#/	.	.	.
16B/	.	16dd\L	.
16F#/	.	16cc#\J	.
16BB/	8BB\	8b\J	.
16F#/JJ	.	.	.
*v	*v	*	*
16C#/LL	8cc#^^\L	.
16E#X/	.	.
16G#/	16b\L	.
16E#/	16an\J	.
16B/	8g#\J	.
16E#/JJ	.	.
=91	=91	=91
16F#\LL	8b^^\L	.
16A\	.	.
16c#\	16a\L	.
16A\	16g#\J	.
16F#\	8f#\J	.
16A\JJ	.	.
16FF#\LL	8r	.
16C#\	.	.
16A\	8f#/L	.
16C#\	.	.
16A\	8c#/J	.
16C#\JJ	.	.
16FF#\LL	8r	.
16C#\	.	.
16A\	(8f#/L	.
16C#\	.	.
16A\	8g#/J)	.
16C#\JJ	.	.
16FF#\LL	8r	.
16C#\	.	.
16A\	(8a/L	.
16C#\	.	.
16A\	8b/J)	.
16C#\JJ	.	.
=92	=92	=92
16AA\LL	8.cc#\L	f
16C#\	.	.
16F#\	.	.
16A\	(16ccc#\L	.
16F#\	16bb\	.
16C#\JJ	16aa\JJ	.
16BB\LL	16gg#\LL	.
16D\	16ff#\	.
16G#\	16ee\	.
16B\	16dd\	.
16G#\	16cc#\	.
16D\JJ	16b\JJ)	.
16C#\LL	16a\LL	.
16c#\	16b\JJ	.
16F#\	[4cc#\	rfz
16c#\	.	.
16A\	.	.
16c#\JJ	.	.
16C#\LL	16cc#\LL]	.
16c#\	16b#X\JJ	.
16E#X\	[4cc#\	.
16c#\	.	.
16G#\	.	.
16c#\JJ	.	.
=93	=93	=93
16C#\LL	16cc#\LL]	.
16c#\	16b#X\JJ	.
16F#\	[4cc#\	rfz
16c#\	.	.
16A\	.	.
16c#\JJ	.	.
16C#\LL	16cc#\LL]	.
16c#\	16b#\JJ	.
16E#X\	4cc#\	.
16c#\	.	.
16G#\	.	.
16c#\JJ	.	.
16BB\LL	(((4.e#X^^\ 4.g# 4.dd	.
16G#\	.	.
16B\	.	.
16G#\	.	.
16BB\	.	.
16G#\JJ	.	.
!	!LO:TX:b:i:t=agitato	!
16AA\LL	8f#\L))) 8a 8cc#	.
16F#\	.	.
16A\	8f#\ 8a 8cc#	.
16F#\	.	.
!	!LO:TX:b:i:t=ed	!
16AA\	8f#\J 8a 8cc# 8ff#	.
16F#\JJ	.	.
=94	=94	=94
!	!LO:TX:b:i:t=accelerando	!
16BB\LL	(((4.e#X^^\ 4.g# 4.dd	.
16G#\	.	.
16B\	.	.
16G#\	.	.
16BB\	.	.
16G#\JJ	.	.
16AA\LL	8f#\L))) 8a 8cc#	.
16F#\	.	.
16A\	8f#\ 8a 8cc#	.
16F#\	.	.
16AA\	8f#\J 8a 8cc# 8ff#	.
16F#\JJ	.	.
16BB\LL	(((4.e#^^\ 4.g# 4.dd	.
16G#\	.	.
16B\	.	.
16G#\	.	.
16BB\	.	.
16G#\JJ	.	.
16AA\LL	8f#\L))) 8a 8cc#	.
16F#\	.	.
16A\	8f#\ 8a 8cc#	.
16F#\	.	.
16AA\	8f#\J 8a 8cc# [8ff#	.
16F#\JJ	.	.
=95	=95	=95
16GG#/LL	8ff#\L]	.
16E#X/	.	.
16G#/	8b\ 8cc# 8ee#X	.
16E#/	.	.
16GG#/	8b\J 8cc# 8ff#	.
16E#/JJ	.	.
16EE#X\LL	4b^^\ 4gg#	.
16C#\	.	.
16G#\	.	.
16C#\	.	.
16EE#\	8cc#\	f
16C#\JJ	.	.
16FF#\LL	(4.a\ 4.cc# 4.aa	.
16F#\	.	.
16C#\	.	.
16F#\	.	.
16FF#\	.	.
16F#\JJ	.	.
16BB\LL	4b\ 4dd 4gg#	.
16G#\	.	.
16D\	.	.
16G#\	.	.
16BB\	8ff#\)	.
16G#\JJ	.	.
=96	=96	=96
16C#\LL	(4f#^^\ 4a 4cc#	.
16F#\	.	.
16A\	.	.
16c#\	.	.
16F#\	16b#X\LL	.
16A\JJ	16cc#\JJ)	.
16C#\LL	(4e#X^^\ 4g# 4dd	.
16E#X\	.	.
16G#\	.	.
16c#\	.	.
16G#\	8cc#\)	.
16E#\JJ	.	.
16FF#\LL	8f#/	.
16C#\	.	.
!	!LO:TX:a:t=Tempo rubato	!
16A\	4.c#/ 4.cc#	sf
16C#\	.	.
16A\	.	.
16C#\JJ	.	.
16FF#\LL	.	.
16C#\	.	.
16G#\	[4B#X/ [4b#	sf
16C#\	.	.
16G#\	.	.
16C#\JJ	.	.
=97	=97	=97
16FF#\LL	8B#/] 8b#]	sf
16C#\	.	.
16A\	4c#^^/ 4cc#	.
16C#\	.	.
16A\	.	.
16C#\JJ	.	.
16FF#\LL	8c#'/L 8cc#	<
16C#\	.	.
16A\	8f#'/ 8ff#	.
16C#\	.	.
16A\	8g#'/J 8gg#	.
16C#\JJ	.	.
16FF#\LL	8a'\ 8aa	[
16C#\	.	.
16A\	[4cc#\ [4ccc#	sf >
16C#\	.	.
16A\	.	.
16C#\JJ	.	.
16FF#\LL	(8cc#\L] 8ccc#]	.
16C#\	.	.
16G#\	8b#X\ 8bb#X	]
16C#\	.	.
16G#\	8g#\J) 8gg#	.
16C#\JJ	.	.
=98	=98	=98
16FF#\LL	[4.cc#\ [4.ccc#	sf
16C#\	.	.
16A\	.	.
16C#\	.	.
16A\	.	.
16C#\JJ	.	.
16FF#\LL	4cc#\] 4ccc#]	>
16C#\	.	.
16A\	.	.
16C#\	.	.
16A\	4c#/ 4cc#	]
16C#\JJ	.	.
16FF#\LL	.	.
16C#\	.	.
16A\	4.c#/ 4.cc#	sf
16C#\	.	.
16A\	.	.
16C#\JJ	.	.
16FF#\LL	.	.
16C#\	.	.
16G#\	[4B#X/ [4b#X	sf
16C#\	.	.
16G#\	.	.
16C#\JJ	.	.
=99	=99	=99
16FF#\LL	8B#/] 8b#]	.
16C#\	.	.
16A\	[4c#/ [4cc#	.
16C#\	.	.
16A\	.	.
16C#\JJ	.	.
16FF#\LL	8c#/L] 8cc#]	<
16C#\	.	.
16A\	8f#/ 8ff#	.
16C#\	.	.
16FFn\	8g#/J 8gg#	[
16C#\JJ	.	.
!	!LO:TX:b:i:t=ten.	!
16EE\LL	4.a\ 4.aa	.
16C#\	.	.
16A\	.	.
16C#\	.	.
16EE\	.	.
16C#\JJ	.	.
16EE\LL	(8a\L 8aa	.
16BB\	.	.
16E\	8bn\ 8bb	.
16BB\	.	.
16EE\	8e\J) 8ee	.
16BB\JJ	.	.
=100	=100	=100
!	!LO:TX:b:i:t=ten	!
.	8qe/ 8qee	f
16AA\LL	2.cc#\ 2.ccc#	.
16E\	.	.
16c#\	.	.
16E\	.	.
16AA\	.	.
16E\JJ	.	.
16AA\LL	.	.
16E\	.	.
16c#\	.	.
16E\	.	.
16AA\	.	.
16E\JJ	.	.
16AA\LL	4.cc#\ 4.ccc#	.
16E\	.	.
16c#\	.	.
16E\	.	.
16AA\	.	.
16E\JJ	.	.
16GG#\LL	8cc#\L 8ccc#	p
16D#X\	.	.
16B#X\	8b#X\ 8bb#X	.
16D#\	.	.
16GG#\	[8g#\J [8gg#	.
16D#\JJ	.	.
=101	=101	=101
16GG#\LL	8g#\L] 8gg#]	<
16D#X\	.	.
16B#X\	8g#\ 8gg#	.
16D#\	.	.
16GG#\	8a\J 8aa	[
16D#\JJ	.	.
16GG#\LL	4.bn\ 4.bbn	.
16Dn\	.	.
16G#\	.	.
16D\	.	.
16GG#\	.	.
16D\JJ	.	.
16GG#\LL	8r	.
16D\	.	.
16G#\	(8b\L 8bb	.
16D\	.	.
16GG#\	8b#X\J) 8bb#X	.
16D\JJ	.	.
16EE#X\LL	8r	.
16C#\	.	.
16G#\	(8cc#\L 8ccc#	.
16C#\	.	.
16BBn\	8g#\J) 8gg#	.
16C#\JJ	.	.
=102	=102	=102
16FF#\LL	8r	.
16C#\	.	.
16A\	(8f#\L 8ff#	.
16C#\	.	.
16FF#\	8g#\J 8gg#	.
16C#\JJ	.	.
16FF#\LL	[4.a\) [4.aa	sf
16C#\	.	.
16A\	.	.
16C#\	.	.
16FF#\	.	.
16C#\JJ	.	.
16FF#\LL	8a\] 8aa]	.
16C#\	.	.
16A\	4.a\ 4.aa	.
16C#\	.	.
16FF#\	.	.
16C#\JJ	.	.
16DD/LL	.	.
16AA/	.	.
16D/	8g#\L 8gg#	.
16AA/	.	.
16DD/	8f#\J 8ff#	.
16AA/JJ	.	.
=103	=103	=103
16CC#/LL	8e#X\ 8ee#X	<
16GG#/	.	.
16C#/	4cc#\ 4ccc#	[
16GG#/	.	.
16CC#/	.	.
16GG#/JJ	.	.
16DD/LL	8a\L 8aa	>
16AA/	.	.
16D/	8g#\ 8gg#	.
16AA/	.	.
16DD/	8f#\J 8ff#	]
16AA/JJ	.	.
16CC#/LL	8e#X\ 8ee#X	<
16GG#/	.	.
16C#/	4cc#\ 4ccc#	[
16GG#/	.	.
16CC#/	.	.
16GG#/JJ	.	.
16DD/LL	8a\L 8aa	>
16AA/	.	.
16D/	8g#\ 8gg#	.
16AA/	.	.
16DD/	8f#\J 8ff#	]
16AA/JJ	.	.
=104	=104	=104
16CC#/LL	8e#X\ 8ee#X	sf
16GG#/	.	.
16C#/	4.cc#\ 4.ccc#	p
16GG#/	.	.
16CC#/	.	.
16GG#/JJ	.	.
16CC#/LL	.	.
16GG#/	.	.
16C#/	4.cc#\ 4.ccc#	.
16GG#/	.	.
16CC#/	.	.
16GG#/JJ	.	.
16CC#/LL	.	.
16GG#/	.	.
16C#/	4.c#/ 4.cc#	p
16GG#/	.	.
16CC#/	.	.
16GG#/JJ	.	.
16CC#/LL	.	.
16GG#/	.	.
!	!LO:TX:b:i:t=rallen.	!
16C#/	4c#/	.
16GG#/	.	.
16CC#/	.	.
16GG#/JJ	.	.
=105	=105	=105
16FF#\LL	8r	pp
16C#\	.	.
16F#\	(8f#/L	.
16A\	.	.
!	!LO:TX:b:i:t=a Tempo sotto voce	!
16F#\	8g#/J)	.
16C#\JJ	.	.
16FF#\LL	8a\	.
16C#\	.	.
16F#\	(8a\L	.
16A\	.	.
16F#\	8b\J)	.
16C#\JJ	.	.
16FF#\LL	(8cc#\L	.
16C#\	.	.
16F#\	8cc#\	.
16A\	.	.
16F#\	8ff#\J)	.
16C#\JJ	.	.
16GG#\LL	(4een^^\	.
16D\	.	.
16E\	.	.
16G#\	.	.
16E\	8b\)	.
16D\JJ	.	.
=106	=106	=106
!	!LO:TX:b:i:t=ten	!
16AA\LL	([4.cc#^^\	.
16C#\	.	.
16E\	.	.
16A\	.	.
16E\	.	.
16A\JJ	.	.
16C#\LL	8cc#\L]	p
16E#X\	.	.
16G#\	8g#\	.
16E#\	.	.
16C#\	8b\J	.
16E#\JJ	.	.
16FF#\LL	8a/L)	>
16C#\	.	.
16F#\	16a/L	]
16A\	16g#/J	.
16F#\	8f#/J	.
16C#\JJ	.	.
16FF#\LL	8r	.
16C#\	.	.
16F#\	(8f#/L	.
16A\	.	.
16F#\	8c#/J)	.
16C#\JJ	.	.
=107	=107	=107
16FF#\LL	8r	.
16C#\	.	.
16A\	(8f#/L	.
16C#\	.	.
16FF#\	8g#/J)	.
16C#\JJ	.	.
16FF#\LL	8a/	.
16C#\	.	.
16A\	(8a/L	<
16C#\	.	.
16FF#\	8b/J)	.
16C#\JJ	.	.
16FF#\LL	8.cc#^^\L	[
16C#\	.	.
16A\	.	.
16C#\	(16aa\L	.
16FF#\	16gg#\	.
16C#\JJ	16ff#\JJ	.
16GG#\LL	4ee#X\)	sf
16D\	.	.
16A\	.	.
16D\	.	.
16AA\	[8ff#^^\	.
16A\JJ	.	.
=108	=108	=108
16AA#X\LL	8ff#\L]	.
16F#\	.	.
16A#X\	(16ee\L	.
16F#\	16dd\J	.
16AA#\	8cc#\J)	.
16A#\JJ	.	.
16BB\LL	8ee^^\L	.
16F#\	.	.
16B\	(16dd\L	.
16F#\	16cc#\J	.
16BB\	8b\J)	.
16F#\JJ	.	.
16C#\LL	8cc#^^\L	.
16E#X\	.	.
16G#\	(16b\L	.
16c#\	16an\J	.
16G#\	8g#\J)	.
16E#\JJ	.	.
16F#\LL	8b^^\L	.
16A#\	.	.
16c#\	(16a\L	.
16A#\	16g#\J	.
16F#\	[8f#\J)	.
16A#\JJ	.	.
=109	=109	=109
16F#\LL	(8f#/L]	p
16A\	.	.
16c#\	8f#/	.
16A\	.	.
16F#\	8g#/J	.
16A\JJ	.	.
!	!LO:TX:b:i:t=dolce	!
16C#\LL	8e#X/L	.
16G#\	.	.
16c#\	8e#/	.
16G#\	.	.
16C#\	8f#/J	.
16G#\JJ	.	.
16C#\LL	8g#/L	.
16E#X\	.	.
16G#\	8cc#/	.
16B\	.	.
16E#\	8g#/J	.
16B\JJ	.	.
16F#\LL	8b/L	.
16A\	.	.
16c#\	16a/L	.
16A\	16g#/J	.
16F#\	[8f#/J)	.
16A\JJ	.	.
=110	=110	=110
16F#\LL	(8f#/L]	.
16A\	.	.
16c#\	8f#/	.
16A\	.	.
16F#\	8g#/J	.
16A\JJ	.	.
16C#\LL	8e#X/L	.
16G#\	.	.
16c#\	8e#/	.
16G#\	.	.
16C#\	8f#/J	.
16G#\JJ	.	.
16C#\LL	8g#/L	.
16E#X\	.	.
16G#\	8.cc#/	.
16B\	.	.
16E#\	.	.
16B\JJ	16g#/Jk	.
16F#\LL	8b/L	.
16A\	.	.
16c#\	16a/L	.
16A\	16g#/J	.
16F#\	[8f#^^/J)	.
16A\JJ	.	.
=111	=111	=111
16F#\LL	8f#/L]	<
16A\	.	.
16c#\	8f#/	.
16A\	.	.
16F#\	8c#/J	.
16A\JJ	.	.
16FF#\LL	8r	.
16C#\	.	.
16A\	(8f#/L	.
16C#\	.	.
16A\	8g#/J)	.
16C#\JJ	.	.
16FF#\LL	8a/	.
16C#\	.	.
16A\	(8a/L	.
16C#\	.	.
16A\	8b/J)	.
16C#\JJ	.	.
16FF#\LL	8.cc#^^\L	[
16C#\	.	.
16A\	.	.
16C#\	16aa\L	.
16A\	16gg#\	.
16C#\JJ	(16ff#\JJ	.
=112	=112	=112
*^	*	*
16GG#/LL	4GG#\	4ee#X\)	sf
16D/	.	.	.
16A/	.	.	.
16D/	.	.	.
16AA/	8AA\	[8ff#^^\	.
16A/JJ	.	.	.
*v	*v	*	*
16AA#X/LL	8ff#\L]	.
16F#/	.	.
16A#X/	(16een\L	.
16F#/	16dd\J	.
16AA#/	8cc#\J)	.
16F#/JJ	.	.
16BB\LL	8ee^^\L	.
16F#\	.	.
16B\	(16dd\L	.
16F#\	16cc#\J	.
16BB\	8b\J)	.
16F#\JJ	.	.
16C#/LL	8cc#^^\L	>
16E#X/	.	.
16B/	(16b\L	]
16E#/	16an\J	.
16B/	8g#\J)	.
16E#/JJ	.	.
=113	=113	=113
16F#\LL	8b^^\L	.
16A\	.	.
16c#\	(16a\L	.
16A\	16g#\J	.
16F#\	8f#\J)	.
16A\JJ	.	.
16F#\LL	8b/L	pp
16A\	.	.
16c#\	16a/L	.
16A\	16g#/J	.
16F#\	8f#/J	.
16A\JJ	.	.
16FF#\LL	8r	<
16C#\	.	.
16A\	(8f#/L	.
16C#\	.	.
16A\	8g#/J)	.
16C#\JJ	.	.
16FF#\LL	(8a/L	.
16C#\	.	.
16A\	8a/	.
16C#\	.	.
16A\	8b/J)	[
16C#\JJ	.	.
=114	=114	=114
16AA\LL	8.cc#^^\L	.
16A\	.	.
16F#\	.	.
16A\	(16ccc#\L	f
16C#\	16bb\	.
16F#\JJ	16aa\JJ	.
16BB\LL	16gg#\LL	.
16G#\	16ff#\	.
16D\	16ee\	.
16G#\	16dd\	.
16BB\	16cc#\	.
16G#\JJ	16b\JJ)	.
16C#\LL	16a\LL	.
16c#\	16b\JJ	.
16F#\	[4cc#\	sf
16c#\	.	.
16A\	.	.
16c#\JJ	.	.
16C#\LL	16cc#\LL]	.
16c#\	16b#X\JJ	.
16E#X\	[4cc#\	sf
16c#\	.	.
16G#\	.	.
16c#\JJ	.	.
=115	=115	=115
16C#\LL	16cc#\LL]	.
16c#\	16b#X\JJ	.
16F#\	[4cc#\	sf
16c#\	.	.
16A\	.	.
16c#\JJ	.	.
16C#\LL	16cc#\LL]	.
16c#\	16b#\JJ	.
16E#X\	4cc#\	sf
16c#\	.	.
16G#\	.	.
16c#\JJ	.	.
16BB\LL	4.e#X^^\ 4.g# 4.dd	f
16G#\	.	.
16B\	.	.
16G#\	.	.
16BB\	.	.
16G#\JJ	.	.
!	!LO:TX:b:i:t=agitato	!
16AA\LL	(8f#\L 8a 8cc#	.
16F#\	.	.
16A\	8f#\ 8a 8cc#	.
16F#\	.	.
16AA\	8f#\J) 8a 8cc# 8ff#	.
16F#\JJ	.	.
=116	=116	=116
16BB\LL	4.e#X^^\ 4.g# 4.dd	.
16G#\	.	.
16B\	.	.
16G#\	.	.
16BB\	.	.
16G#\JJ	.	.
16AA\LL	(8f#\L 8a 8cc#	.
16F#\	.	.
16A\	8f#\ 8a 8cc#	.
16F#\	.	.
16AA\	8f#\J) 8a 8cc# 8ff#	.
16F#\JJ	.	.
16BB\LL	(4.e#^^\ 4.g# 4.dd	.
16G#\	.	.
16B\	.	.
16G#\	.	.
16BB\	.	.
16G#\JJ	.	.
16BB-X\LL	4.fn\ 4.g# 4.dd	.
16G#\	.	.
16B-X\	.	.
16G#\	.	.
16BB-\	.	.
16G#\JJ	.	.
=117	=117	=117
!	!LO:TX:b:i:t=stringendo	!
16AA\LL	4.f#X\ 4.a 4.dd	.
16F#X\	.	.
16A\	.	.
16F#\	.	.
16AA\	.	.
16F#\JJ	.	.
16AA\LL	4.e\ 4.a 4.cc#	.
16E\	.	.
16A\	.	.
16E\	.	.
16AA\	.	.
16E\JJ	.	.
16GG#\LL	4.d#X\ 4.f# 4.cc#	.
16D#X\	.	.
16G#\	.	.
16D#\	.	.
16GG#\	.	.
16D#\JJ	.	.
16GG#\LL	4.d#\ 4.f# 4.ccn	.
16D#\	.	.
16G#\	.	.
16D#\	.	.
16GG#\	.	.
16D#\JJ	.	.
=118	=118	=118
16GGn\LL	4.dn\ 4.fn 4.ccn	.
16Dn\	.	.
16Gn\	.	.
16D\	.	.
16GG\	.	.
16D\JJ	.	.
16GG\LL	4.d\ 4.f 4.b	.
16D\	.	.
16G\	.	.
16D\	.	.
16GG\	.	.
16D\JJ	.	.
16FF#\LL	4.c#X\ 4.f#X 4.b	.
16C#\	.	.
16F#\	.	.
16C#\	.	.
16FF#\	.	.
16C#\JJ	.	.
16FF#\LL	4.c#\) 4.f# 4.a#X	.
16C#\	.	.
16F#\	.	.
16C#\	.	.
16FF#\	.	.
16C#\JJ	.	.
=119	=119	=119
16DD/LL	[4.cn/ [4.f#X [4.a	sf >
16AA/	.	.
16D/	.	.
16AA/	.	.
16DD/	.	.
16AA/JJ	.	.
16DD/LL	8c/L] 8f#] 8a]	]
16AA/	.	.
16D/	8g#/	.
16AA/	.	.
16DD/	8f#/J	.
16AA/JJ	.	.
16CC#/LL	[4.c#X^^/ [4.f# [4.a [4.cc#X	.
16FF#/	.	.
16AA/	.	.
16C#/	.	.
16AA/	.	.
16FF#/JJ	.	.
16CC#/LL	8c#/L] 8f#] 8a] 8cc#]	>
16EE#X/	.	.
16GG#/	8B/ 8e#X 8g#	]
16C#/	.	.
16GG#/	8a/J	.
16EE#/JJ	.	.
=120	=120	=120
16FF#\LL	(8A/L 8c# 8f#	.
16F#\	.	.
16C#\	8A/ 8c# 8f#	.
16F#\	.	.
16C#\	8g#/J)	.
16F#\JJ	.	.
16FF#\LL	(8a/L	.
16F#\	.	.
16C#\	8c#/ 8f# 8a	.
16F#\	.	.
16C#\	8b/J)	.
16F#\JJ	.	.
16FF#\LL	(8f#\L 8a 8cc#	.
16F#\	.	.
16C#\	8f#\ 8a 8cc#	.
16F#\	.	.
16C#\	8ff#\J)	.
16F#\JJ	.	.
16FF#\LL	(4e#X\ 4g# 4b 4dd	sf >
16G#\	.	.
16C#\	.	.
16G#\	.	.
16C#\	8cc#\)	]
16G#\JJ	.	.
=121	=121	=121
16FF#\LL	(8A/L 8c# 8f#	.
16F#\	.	.
16C#\	8A/ 8c# 8f#	.
16F#\	.	.
16C#\	8g#/J)	.
16F#\JJ	.	.
16FF#\LL	(8a/L	.
16F#\	.	.
16C#\	8c#/ 8f# 8a	.
16F#\	.	.
16C#\	8b/J)	.
16F#\JJ	.	.
16FF#\LL	(8f#\L 8a 8cc#	.
16F#\	.	.
16C#\	8f#\ 8a 8cc#	.
16F#\	.	.
16C#\	8ff#\J)	.
16F#\JJ	.	.
16FF#\LL	(4e#X^^\ 4g# 4b 4dd	sf >
16G#\	.	.
16C#\	.	.
16G#\	.	.
16C#\	8cc#\)	]
16G#\JJ	.	.
=122	=122	=122
16EE\LL	8gn\L 8b-X 8cc#	f
16E\	.	.
16C#\	8g\ 8b- 8cc#	.
16E\	.	.
16AA#X\	8ggn\J	.
16E\JJ	.	.
16EE\LL	4g^^\ 4b- 4ff#	<
16E\	.	.
16C#\	.	.
16E\	.	.
16AA#\	8g\ 8b- 8ee	.
16E\JJ	.	.
16FF#\LL	(8a\L 8ccn 8dd#X	.
16D#X\	.	.
16Cn\	8a\ 8cc 8dd#	.
16D#\	.	.
16AA#\	8aa\J	[
16D#\JJ	.	.
16FF#\LL	4a\ 4cc 4gg#X	.
16D#\	.	.
16C\	.	.
16D#\	.	.
16AA#\	8a\) 8cc 8ff#	.
16D#\JJ	.	.
=123	=123	=123
!	!LO:TX:b:i:t=Piu stretto	!
16FFn/LL	(8ddn\L 8ffn 8gg#X	.
16Dn/	.	.
16BB/	8dd\ 8ff 8gg#	.
16D/	.	.
16GG#/	8bb\J)	.
16D/JJ	.	.
16FFn/LL	(8dd\L 8gg# 8bb	.
16Dn/	.	.
16BB/	8dd\ 8gg# 8bb	.
16D/	.	.
16GG#/	8ddd\J)	.
16D/JJ	.	.
16EE/LL	(8gg#\L 8bb 8ddd	.
16D/	.	.
16BB/	8gg#\ 8bb 8ddd	.
16D/	.	.
16GG#/	8ggg#\J)	.
16D/JJ	.	.
16EE/LL	(8bb\L 8ddd 8ggg#	<
16D/	.	.
16BB/	8bb\ 8ddd 8ggg#	[
16D/	.	.
16GG#/	8bbb\J)	.
16D/JJ	.	.
=124	=124	=124
16DD#X/LL	8bb\L 8ddd#X 8ggg#	f
16D#X/	.	.
16BB/	8bb\ 8ddd# 8ggg#	.
16D#/	.	.
16GG#/	8bbb\J	.
16D#/JJ	.	.
16DD#/LL	4bb^^\ 4ddd# 4aaa#X	.
16D#/	.	.
16BB/	.	.
16D#/	.	.
16GG#/	8bb\ 8ddd# 8ggg#	.
16D#/JJ	.	.
16DD#/LL	8gggn\L	.
16D#/	.	.
16C#/	8ggn\ 8aa#X 8ccc#	.
16D#/	.	.
16AA#X/	8gg\J 8aa# 8ddd#	.
16D#/JJ	.	.
16DD#/LL	4gg^^\ 4aa# 4eee	.
16D#/	.	.
16C#/	.	.
16D#/	.	.
16AA#X/	8gg\ 8aa# 8ddd#	.
16D#/JJ	.	.
=125	=125	=125
16DD#X/LL	8aa\L 8cccn 8fff#	p
16D#X/	.	.
16Cn/	8aa\ 8ccc 8fff#	.
16D#/	.	.
16AAn/	8aa\J 8ccc 8aaa	.
16D#/JJ	.	.
16DD#/LL	4aa\ 4ccc 4ggg#	.
16D#/	.	.
16C/	.	.
16D#/	.	.
16AAn/	8aa\ 8ccc 8fff#	.
16D#/JJ	.	.
*	*X8	*
!	!LO:TX:a:t=loco	!
16DD#/LL	8fffn\L	.
16BB/	.	.
16GG#/	8ffn\ 8bb	.
16BB/	.	.
16FFn/	8ff\J 8cccn	.
16BB/JJ	.	.
16DD#/LL	(4ff^^\ 4dddn	.
16BB/	.	.
16GG#/	.	.
16BB/	.	.
16FF/	8ccc'\)	.
16BB/JJ	.	.
=126	=126	=126
16FF#\LL	8a\L 8cc# 8ff#X	ff
16F#\	.	.
16C#\	(8a\ 8cc# 8ff#	.
16F#\	.	.
16FF#\	8a\J) 8cc# 8gg#	.
16F#\JJ	.	.
16FF#\LL	8a'\L 8cc# 8aa	.
16F#\	.	.
16C#\	(8a\ 8cc# 8ff#	.
16F#\	.	.
16FF#\	8a\J 8cc# 8gg#	.
16F#\JJ	.	.
16BBB/LL	8a\L) 8cc# 8aa	.
16BB/	.	.
16FF#/	(8f#\ 8b 8dd	.
16BB/	.	.
16DD/	8f#\J 8b 8ee	.
16BB/JJ	.	.
16BBB/LL	8f#\L 8b 8ff#	.
16BB/	.	.
16FF#/	8f#\ 8b 8ee	.
16BB/	.	.
16DD/	8f#\J) 8b 8dd	.
16BB/JJ	.	.
=127	=127	=127
16CC#/LL	8f#\L 8a 8cc#	<
16C#/	.	.
16AA/	8a'\ 8cc# 8aa	[
16C#/	.	.
16FF#/	8a'\J 8cc# 8gg#	.
16C#/JJ	.	.
16CC#/LL	8a'\L 8cc# 8ggn	.
16C#/	.	.
16AA/	8a'\ 8cc# 8ff#	.
16C#/	.	.
16FF#/	8a'\J 8cc# 8ffn	.
16C#/JJ	.	.
16CC#/LL	8a'\L 8cc# 8ee	>
16C#/	.	.
16GG#/	8a'\ 8dd#X	.
16C#/	.	.
16EE#X/	8a'\J 8ddn	.
16C#/JJ	.	.
16CC#/LL	8e#X'\L 8cc#	.
16C#/	.	.
16GG#/	8e#^^\ 8b	.
16C#/	.	.
16EE#/	8e#'\J 8g#	]
16C#/JJ	.	.
=128	=128	=128
!	!LO:TX:b:i:t=marcato	!
16FF#\LL	(8f#/L	.
16F#\	.	.
16C#\	8A/ 8c# 8f#	.
16F#\	.	.
16C#\	8g#/J	.
16F#\JJ	.	.
16FF#\LL	8c#/L 8f# 8a	.
16F#\	.	.
16C#\	8c#/ 8f# 8a	.
16F#\	.	.
16C#\	8b/J	.
16F#\JJ	.	.
16FF#\LL	8f#\L 8a 8cc#	.
16F#\	.	.
16C#\	8f#\ 8a 8cc#	.
16F#\	.	.
16C#\	8ff#\J	.
16F#\JJ	.	.
16FF#\LL	4e#X^^/ 4g# 4b 4dd	.
16G#\	.	.
16C#\	.	.
16G#\	.	.
16C#\	8cc#\)	.
16G#\JJ	.	.
=129	=129	=129
16FF#\LL	(8A/L 8c# 8f#	.
16F#\	.	.
16C#\	8A/ 8c# 8f#	.
16F#\	.	.
16C#\	8g#/J	.
16F#\JJ	.	.
16FF#\LL	8c#/L 8f# 8a	.
16F#\	.	.
16C#\	8c#/ 8f# 8a	.
16F#\	.	.
16C#\	8b/J	.
16F#\JJ	.	.
16FF#\LL	8f#\L 8a 8cc#	.
16F#\	.	.
16C#\	8f#\ 8a 8cc#	.
16F#\	.	.
16C#\	8ff#\J	.
16F#\JJ	.	.
16FF#\LL	4b^^\ 4cc# 4ff#	.
16G#\	.	.
16C#\	.	.
16G#\	.	.
16C#\	8ee#X\)	.
16G#\JJ	.	.
=130	=130	=130
!	!LO:TX:a:t=meno mosso e perdendosi	!
16FF#\LL	8A#X/L 8c# 8f#	p
16F#\	.	.
16C#\	8A#/ 8c# 8f#	.
16F#\	.	.
16FF#\	8A#/J 8c# 8g#	.
16F#\JJ	.	.
16FF#\LL	8A#/L 8c# 8a#X	.
16F#\	.	.
16C#\	8A#/ 8c# 8f#	.
16F#\	.	.
16FF#\	8A#/J 8c# 8g#	.
16F#\JJ	.	.
16FF#\LL	8A#/L 8c# 8a#	.
16F#\	.	.
16C#\	8A#/ 8c# 8f#	.
16F#\	.	.
16FF#\	8A#/J 8c# 8g#	.
16F#\JJ	.	.
16FF#\LL	8A#/L 8c# 8a#	.
16F#\	.	.
16C#\	8A#/ 8c# 8f#	.
16F#\	.	.
16FF#\	8A#/J 8c# 8g#	.
16F#\JJ	.	.
=131	=131	=131
*^	*	*
16FFF#/LL	8FFF#\L	2.A#X/ 2.c# 2.f# 2.a#X	.
16FF#/	.	.	.
16AAA#X/	8AAA#\	.	.
16FF#/	.	.	.
16CC#/	8CC#\J	.	.
16FF#/JJ	.	.	.
16FFF#/LL	8FFF#\L	.	.
16FF#/	.	.	.
16AAA#/	8AAA#\	.	.
16FF#/	.	.	.
16CC#/	8CC#\J	.	.
16FF#/JJ	.	.	.
*v	*v	*	*
*X8	*	*
*^	*	*
[4.FFF#/	4.ryy	[4.A#/ [4.c# [4.f# [4.a#	pp
4FFF#/]	4.ryy	4.A#/_ 4.c#_ 4.f#_ 4.a#]	.
8FFF#/	.	.	.
*v	*v	*	*
=132	=132	=132
2.FFF#;/	2.A#;/] 2.c#] 2.f#] 2.a#X	.
2.r	2.r	.
==	==	==
*-	*-	*-
!!!system-decoration: [(s1,s2)]
!!!AIN: 2 piano
!!!ENC: Anastazja Marusiak
!!!END: 2022-01-31
